X:1012
T:Niel Gow's Compliments return'd to Mr. Marshal.
M:C
L:1/8
Q:1/4=96
I: :| ||
Z:Jack Campin * www.campin.me.uk * 2009
K:D
Dd``fd  ad`Tfd  |   Dd        (g/f/e/d/)   ce (Te2{de})|\
Dd``fd  ad``fd  |   b/a/b/c'/  d'f         Ad   d2    :|
b>d'ad' g>d'fd' |  (e/d/e/f/) (g/f/).e/.d/ ce  Te2     |\
b>d'ad' g>d'f>d'|  (e/d/e/f/) (g/f/).e/.d/ Ad```dc'    |
b>d'ad' gd'`fd' |   e/d/e/f/   g/f/e/d/    ce (Te2{de})|\
FB``dD  Bd`Hgb  |{b}ag/f/      g/f/e/d/    Ad   d2    |]

